!!!COM: Bartók, Béla
!!!OTL: Suite for Piano, op. 14
!!!OMV: II: Scherzo
!!!example: 329
!!!work: Bar-17
**kern	**kern	**dynam
*part1	*part1	*part1
*staff2	*staff1	*
*I"Piano	*	*
*I'Pno.	*	*
*clefF4	*clefG2	*
*k[]	*k[]	*
*	*	*
*M3/4	*M3/4	*
*MM138	*MM138	*
=199	=	=
*^	*	*
4B-X'	[2.D-X	2.g	.
4E'	.	.	.
4B-'	.	.	.
.	.	(16qee/LL	.
.	.	16qff/	.
.	.	16qgg/JJ	.
=200	=200	=200	=200
4E'	2.D-]	[2.aa	sf
4B-X'	.	.	.
4E'	.	.	.
=201	=201	=201	=201
4B-X'	[2.D-X	4aa])	.
4E'	.	(4dd-X'	.
4B-'	.	4cc-X'	.
=202	=202	=202	=202
4E'	2.D-]	4a'	.
4B-X'	.	4g'	.
4E'	.	4f'	.
=203	=203	=203	=203
4D-X'	[2.GG	2e-X~	.
4B-X'	.	.	.
4En'	.	4f'	.
=204	=204	=204	=204
4B-X'	2.GG_	[2.c	.
4D-X'	.	.	.
4B-'	.	.	.
=205	=205	=205	=205
!	!	!LO:TX:a:i:t=rit.	!
4E'	2.GG_	8%3c])	.
4B-X'	.	.	.
.	.	8%3Bn~	<
4D-X'	.	.	.
=206	=206	=206	=206
4B-X'	2.GG]	8%3c~	.
4E'	.	.	.
.	.	8%3d~	.
4B-'	.	.	.
*v	*v	*	*
=207	=207	=207
!!linebreak:original
!	!LO:TX:a:B:t=Tempo I.	!
2.r	4e-X'^^	[
.	4c-X'	.
.	4G'	.
=208	=208	=208
2.r	2.r	.
.	(16qb/LL	.
.	16qcc/	.
.	16qdd/JJ	.
*clefG2	*	*
=209	=209	=209
4G: 4B-X: 4d-X: 4en:	4ee-X')	sf
4r	4cc-X'	.
4r	4g'	.
=210	=210	=210
2.r	2.r	.
.	16qeee/LL	.
.	16qfff/	.
.	16qfff#X/JJ	.
=211	=211	=211
2.r	4ggg'	ff
.	4eee-X'	.
.	4bb'	.
=212	=212	=212
4ccc'	2.r	.
4aa-X'	.	.
4een'	.	.
=213	=213	=213
2.r	4gg'	.
.	4ee-X'	.
.	4b'	.
=214	=214	=214
4cc'	2.r	.
4a-X'	.	.
4en'	.	.
=215	=215	=215
2.r	4g'	.
.	4e-X'	.
.	4B'	.
==	==	==
*-	*-	*-
!!!CDT: 1881/03/25-1945/09/26
!!!CBL: Sînnicolau Mare (Nagyszentmiklós), Romania (Hungary)
!!!CDL: New York, United States
!!!CNT: Hungarian
!!!AGN: Instrumental; Keyboard
!!!MCN:
!!!MDT: 1919/04/21
!!!MGN:
!!!MLC: Budapest, Hungary
!!!MPD: 1919
!!!MPN: Bartók, Béla
!!!ODT: 1916
!!!PDT: 1918
!!!excerpt-start-measure: 199
!!!excerpt-end-measure: 215
!!!excerpt-start-time: 1:33
!!!excerpt-end-time: 1:44
!!!EEV: 2020/01/17
!!!system-decoration: {(s1,s2)}
!!!ONB: Converted from MusicXML on 2020/01/17
